; HEADER_BLOCK_START
; generated by OrcaSlicer 2.2.0 on 2025-02-27 at 19:30:02
; total layer number: 104
; filament_density: 1.24
; filament_diameter: 1.12838
; max_z_height: 185.40
; HEADER_BLOCK_END

; THUMBNAIL_BLOCK_START

;
; THUMBNAIL_BLOCK_END

; external perimeters extrusion width = 4.50mm
; perimeters extrusion width = 4.50mm
; infill extrusion width = 4.50mm
; solid infill extrusion width = 4.50mm
; top infill extrusion width = 4.50mm
; first layer extrusion width = 4.50mm

; EXECUTABLE_BLOCK_START
EXCLUDE_OBJECT_DEFINE NAME=Julia_Vase_004_-_Bloom_-_Solid.stl_id_0_copy_0 CENTER=500,500.004 POLYGON=[[406.275,506.827],[406.293,505.067],[406.388,504.017],[406.575,503.022],[407.187,500.429],[407.979,498.238],[408.278,497.433],[408.592,496.733],[409.409,495.039],[413.034,487.669],[413.122,487.499],[414.228,485.44],[415.051,484.071],[430.941,458.531],[431.625,457.448],[432.134,456.67],[433.156,455.237],[434.485,453.445],[435.125,452.687],[439.873,447.255],[440.555,446.497],[445.964,441.091],[447.05,440.044],[453.155,434.697],[454.663,433.573],[455.892,432.674],[456.654,432.162],[457.557,431.573],[458.209,431.161],[459.404,430.408],[484.841,414.625],[485.327,414.345],[486.328,413.789],[487.451,413.21],[488.773,412.543],[495.268,409.349],[495.605,409.183],[497.298,408.362],[498.995,407.706],[499.104,407.667],[500.592,407.176],[501.882,406.873],[503.554,406.483],[504.737,406.349],[505.628,406.301],[534.081,406.676],[535.109,406.716],[536.107,406.771],[537.024,406.993],[537.979,407.242],[538.773,407.451],[549.504,410.73],[553.093,412.063],[557.071,413.881],[559.506,415.003],[560.882,415.709],[562.115,416.384],[563.276,417.112],[564.387,417.814],[566.034,418.925],[568.249,420.547],[569.403,421.442],[569.738,421.704],[572.702,424.294],[573.165,424.719],[574.752,426.319],[575.78,427.373],[576.184,427.828],[577.942,429.875],[579.606,431.927],[580.623,433.328],[581.727,434.918],[582.123,435.501],[582.163,435.56],[582.562,436.156],[582.981,436.783],[584.089,438.713],[584.468,439.391],[585.233,440.899],[585.66,441.78],[588.432,448.111],[588.701,448.822],[589.005,449.651],[589.32,450.584],[592.67,461.514],[592.84,462.252],[593.204,463.91],[593.304,464.653],[593.35,465.166],[593.725,493.434],[593.706,495.343],[593.556,496.34],[593.45,496.875],[593.245,497.818],[593.064,498.605],[592.853,499.4],[592.587,500.205],[592.313,500.987],[592.11,501.551],[591.707,502.564],[591.168,503.828],[586.811,512.641],[585.96,514.232],[585.273,515.416],[584.442,516.754],[568.938,541.691],[568.264,542.75],[567.242,544.274],[565.212,546.965],[559.868,553.1],[554.205,558.754],[552.994,559.938],[546.977,565.217],[544.088,567.346],[543.168,567.974],[541.985,568.749],[516.581,584.491],[514.531,585.759],[513.635,586.242],[512.012,587.078],[511.379,587.404],[504.094,591.005],[502.799,591.587],[502.267,591.823],[500.734,592.413],[499.457,592.833],[498.819,592.988],[496.748,593.456],[496.07,593.578],[495.31,593.661],[494.829,593.687],[494.163,593.707],[492.912,593.695],[465.649,593.341],[465.029,593.323],[464.59,593.295],[464.119,593.252],[463.411,593.118],[462.843,592.985],[461.319,592.57],[460.771,592.404],[450.747,589.363],[449.805,589.034],[448.819,588.671],[447.067,587.987],[442.57,585.97],[440.93,585.21],[440.179,584.855],[439.198,584.347],[438.21,583.779],[436.983,583.066],[436.206,582.581],[435.227,581.916],[434.113,581.157],[433.417,580.676],[432.675,580.132],[431.556,579.304],[430.59,578.571],[427.802,576.141],[426.958,575.397],[424.945,573.408],[423.957,572.336],[421.953,570.008],[420.455,568.156],[419.61,567],[418.484,565.406],[417.693,564.257],[416.731,562.732],[416.241,561.89],[415.502,560.536],[414.991,559.524],[414.535,558.557],[414.136,557.676],[412.262,553.434],[411.45,551.599],[411.053,550.534],[407.294,538.344],[406.722,535.719],[406.681,534.551],[406.275,506.827]]
M73 P0 R51
;TYPE:Custom
START_PRINT BED_TEMPERATURE=50 MATERIAL=PLA KAMP_LEVELING=1 PURGE_LAYER_HEIGHT=2 PURGE_PARKING_SPEED=10000 PURGE_LENGHT=300 PURGE_SPEED=500 PURGE_MATERIAL_QUANTITY=3000 EXTRUDER_TEMPERATURE=210 EXTRUDER_TEMPERATURE_INITIAL_LAYER=210
G90
G21
M83 ; use relative distances for extrusion
; filament start gcode
M106 P3 S255


SET_PRESSURE_ADVANCE ADVANCE=0; Override pressure advance value
M106 S0
;LAYER_CHANGE
;Z:1.8
;HEIGHT:1.8
;BEFORE_LAYER_CHANGE
;1.8
G92 E0

G1 Z1.8 F16800
;AFTER_LAYER_CHANGE
;1.8
;_SET_FAN_SPEED_CHANGING_LAYER
SET_VELOCITY_LIMIT ACCEL=2500
SET_VELOCITY_LIMIT SQUARE_CORNER_VELOCITY=5
G1 E-15 F15000
G1 X433.406 Y433.902 F16800
M73 P0 R50
G1 E20 F15000
M73 P0 R50
;TYPE:Skirt
;WIDTH:4.5
G1 F2025.743
G1 X448.877 Y418.705 E160.58536
G1 X450.015 Y417.657 E11.44867
G1 X452.285 Y415.911 E21.20921
G1 X455.917 Y413.697 E31.49688
G1 X464.973 Y408.909 E75.85162
G1 X468.285 Y407.384 E26.99958
G1 X469.779 Y406.815 E11.83507
G1 X471.504 Y406.301 E13.33453
G1 X474.021 Y405.856 E18.92627
G1 X480.608 Y405.499 E48.84247
G1 X482.784 Y405.518 E16.11048
G1 X484.139 Y405.618 E10.06408
G1 X504.704 Y408.005 E153.3031
G1 X506.241 Y408.27 E11.54302
G1 X512.361 Y409.631 E46.42859
G1 X514.655 Y410.308 E17.71184
G1 X516.385 Y411.005 E13.80422
G1 X517.869 Y411.755 E12.315
G1 X521.855 Y414.286 E34.96311
G1 X533.793 Y423.732 E112.72501
G1 X535.503 Y425.316 E17.25261
G1 X573.46 Y465.228 E407.84293
G1 X574.587 Y466.487 E12.51797
G1 X576.723 Y469.098 E24.97439
G1 X583.671 Y477.969 E83.43991
G1 X585.637 Y480.673 E24.75293
G1 X586.607 Y482.148 E13.07175
G1 X587.688 Y484.201 E17.17893
G1 X588.695 Y486.861 E21.05999
G1 X590.468 Y493.813 E53.13119
G1 X590.95 Y496.477 E20.04255
G1 X593.281 Y517.9 E159.56815
G1 X593.358 Y519.646 E12.94329
G1 X593.275 Y525.274 E41.67879
G1 X593.11 Y527.434 E16.03549
G1 X592.842 Y529.11 E12.56737
G1 X592.416 Y530.767 E12.66748
G1 X591.721 Y532.809 E15.97354
G1 X590.969 Y534.623 E14.5415
G1 X585.729 Y544.924 E85.57622
G1 X584.308 Y547.497 E21.76386
G1 X582.876 Y549.687 E19.37623
G1 X581.75 Y551.108 E13.42612
G1 X580.353 Y552.604 E15.15586
G1 X551.457 Y580.955 E299.75474
G1 X550.306 Y582.053 E11.77757
G1 X548.695 Y583.399 E15.54423
G1 X546.817 Y584.7 E16.91526
G1 X544.588 Y586.038 E19.25248
G1 X534.89 Y591.167 E81.23321
G1 X531.273 Y592.805 E29.4024
G1 X529.753 Y593.349 E11.95654
G1 X528.431 Y593.718 E10.1593
G1 X525.19 Y594.22 E24.28681
G1 X519.722 Y594.505 E40.5461
G1 X517.99 Y594.526 E12.827
G1 X516.426 Y594.45 E11.59243
G1 X495.143 Y591.982 E158.64807
G1 X493.748 Y591.739 E10.48392
G1 X487.704 Y590.39 E45.85611
G1 X485.602 Y589.802 E16.16407
G1 X482.786 Y588.602 E22.66081
G1 X479.233 Y586.462 E30.71766
G1 X477.804 Y585.472 E12.86684
G1 X466.25 Y576.317 E109.15753
G1 X464.575 Y574.779 E16.83751
G1 X425.652 Y533.795 E418.52692
G1 X423.06 Y530.65 E30.17397
G1 X416.29 Y521.993 E81.37776
G1 X414.147 Y519.021 E27.1342
G1 X413.376 Y517.822 E10.5517
G1 X412.293 Y515.753 E17.29314
G1 X411.456 Y513.615 E17.00338
G1 X410.966 Y511.955 E12.81534
G1 X409.587 Y506.358 E42.6849
G1 X409.057 Y503.573 E20.98743
G1 X406.786 Y482.909 E153.93741
G1 X406.659 Y479.522 E25.09261
G1 X406.753 Y474.414 E37.83224
G1 X406.918 Y472.366 E15.21048
G1 X407.256 Y470.565 E13.57022
G1 X407.959 Y468.088 E19.0665
G1 X409.039 Y465.381 E21.58505
G1 X414.294 Y455.06 E85.75504
G1 X415.597 Y452.672 E20.14331
G1 X416.868 Y450.683 E17.47652
G1 X418.161 Y448.999 E15.72222
G1 X419.296 Y447.763 E12.42721
G1 X433.192 Y434.113 E144.23458
G1 X436.075 Y437.047 F16800
G1 F2025.743
G1 X451.76 Y421.639 E162.80676
G1 X452.774 Y420.708 E10.19285
G1 X454.657 Y419.272 E17.53329
G1 X457.942 Y417.277 E28.45935
G1 X466.893 Y412.547 E74.96749
G1 X469.936 Y411.152 E24.78653
G1 X471.05 Y410.728 E8.82429
G1 X472.539 Y410.283 E11.50946
G1 X474.982 Y409.896 E18.31343
G1 X480.801 Y409.608 E43.14212
G1 X482.654 Y409.63 E13.72491
G1 X504.202 Y412.088 E160.59096
G1 X511.468 Y413.647 E55.02668
G1 X513.341 Y414.206 E14.46867
G1 X514.63 Y414.725 E10.2925
G1 X515.897 Y415.366 E10.51324
G1 X519.42 Y417.601 E30.89246
G1 X531.206 Y426.93 E111.30276
G1 X532.522 Y428.151 E13.2891
G1 X570.479 Y468.062 E407.84293
G1 X573.538 Y471.702 E35.20826
G1 X580.432 Y480.504 E82.78793
G1 X583.109 Y484.312 E34.46442
G1 X583.961 Y485.943 E13.62202
G1 X584.744 Y488.006 E16.34421
G1 X586.476 Y494.809 E51.97632
G1 X586.861 Y496.924 E15.9198
G1 X589.186 Y518.293 E159.16277
G1 X589.243 Y519.997 E12.62968
G1 X589.161 Y525.21 E38.60211
G1 X589.02 Y526.994 E13.24993
G1 X588.809 Y528.297 E9.7796
G1 X588.492 Y529.533 E9.44493
G1 X587.906 Y531.268 E13.55582
G1 X587.193 Y532.99 E13.80184
G1 X582.068 Y543.048 E83.59031
G1 X580.714 Y545.496 E20.71785
G1 X579.514 Y547.316 E16.14199
G1 X578.674 Y548.376 E10.01059
G1 X577.472 Y549.667 E13.0659
G1 X548.576 Y578.019 E299.75474
G1 X547.469 Y579.074 E11.32444
G1 X546.268 Y580.078 E11.58985
G1 X544.681 Y581.184 E14.32231
G1 X542.595 Y582.439 E18.02681
G1 X532.98 Y587.523 E80.53609
G1 X529.695 Y589.006 E26.68965
G1 X527.393 Y589.738 E17.88894
G1 X524.976 Y590.112 E18.10836
G1 X519.508 Y590.397 E40.5461
G1 X516.827 Y590.355 E19.85223
G1 X495.67 Y587.902 E157.70762
M73 P1 R50
G1 X488.602 Y586.375 E53.54174
M73 P1 R50
G1 X486.894 Y585.896 E13.14146
G1 X484.628 Y584.924 E18.25195
G1 X480.768 Y582.538 E33.6076
G1 X471.068 Y574.917 E91.34032
G1 X468.443 Y572.788 E25.02476
G1 X467.556 Y571.944 E9.06303
G1 X429.345 Y531.76 E410.60228
G1 X426.301 Y528.116 E35.15865
G1 X419.531 Y519.459 E81.37776
G1 X417.506 Y516.647 E25.65866
G1 X416.739 Y515.422 E10.7
G1 X415.94 Y513.832 E13.1778
G1 X415.34 Y512.26 E12.46169
G1 X414.96 Y510.971 E9.94802
G1 X413.541 Y505.203 E43.98322
G1 X413.146 Y503.124 E15.66993
G1 X410.875 Y482.459 E153.93741
G1 X410.772 Y479.598 E21.20165
G1 X410.866 Y474.489 E37.83224
G1 X410.963 Y473.166 E9.82532
G1 X411.46 Y470.697 E18.64834
G1 X412.124 Y468.664 E15.83495
G1 X412.813 Y467.017 E13.2191
G1 X417.795 Y457.241 E81.24353
G1 X419.729 Y453.799 E29.23989
G1 X420.976 Y452.052 E15.89056
G1 X422.179 Y450.697 E13.41653
G1 X435.861 Y437.257 E142.01318
; printing object Julia_Vase_004_-_Bloom_-_Solid.stl id:0 copy 0
G1 E-3 F15000
;WIPE_START
G1 F2025.743
G1 X446.561 Y426.746 E-12
;WIPE_END
EXCLUDE_OBJECT_START NAME=Julia_Vase_004_-_Bloom_-_Solid.stl_id_0_copy_0
G1 X442.23 Y454.176 F16800
G1 E20 F15000
;TYPE:Outer wall
G1 F2025.743
G1 X443.387 Y453.892 E8.82587
G1 X444.898 Y453.597 E11.39475
G1 X445.925 Y453.505 E7.63527
G1 X446.694 Y453.506 E5.69557
G1 X447.286 Y453.545 E4.3939
G1 X447.791 Y453.633 E3.79469
G1 X448.62 Y453.843 E6.33219
G1 X450.021 Y453.96 E10.40906
G1 X451.508 Y453.518 E11.49264
G1 X452.474 Y452.607 E9.82819
G1 X452.881 Y452.123 E4.68189
G1 X453.25 Y451.429 E5.82033
G1 X453.561 Y450.516 E7.14175
G1 X453.781 Y448.633 E14.04136
G1 X453.782 Y448.403 E1.69915
G1 X453.807 Y448.113 E2.15706
G1 X453.891 Y447.409 E5.25263
G1 X453.91 Y446.824 E4.33033
G1 X454.132 Y445.473 E10.13975
G1 X454.529 Y444.121 E10.43658
G1 X454.944 Y442.384 E13.22246
G1 X455.127 Y441.969 E3.35873
G1 X455.596 Y441.201 E6.66631
G1 X456.055 Y440.372 E7.01182
G1 X456.461 Y439.336 E8.23673
G1 X456.676 Y438.483 E6.51793
G1 X456.733 Y438.339 E1.14666
G1 X457.116 Y437.747 E5.21866
G1 X457.521 Y437.242 E4.79553
G1 X457.922 Y436.835 E4.22985
G1 X459.17 Y435.73 E12.34341
G1 X459.699 Y435.214 E5.47384
G1 X459.907 Y434.928 E2.6166
G1 X460.181 Y434.623 E3.03619
G1 X460.624 Y433.888 E6.35896
G1 X461.182 Y432.831 E8.8427
G1 X461.557 Y432.317 E4.71764
G1 X461.894 Y431.953 E3.67107
G1 X462.394 Y431.505 E4.97353
G1 X462.925 Y431.131 E4.80465
G1 X464.269 Y430.308 E11.67433
G1 X464.995 Y429.897 E6.17143
G1 X465.304 Y429.746 E2.54963
G1 X465.944 Y429.538 E4.98369
G1 X466.528 Y429.46 E4.3581
G1 X466.793 Y429.448 E1.96802
G1 X467.876 Y429.454 E8.02011
G1 X468.562 Y429.303 E5.20257
G1 X469.263 Y429.066 E5.47613
G1 X469.977 Y428.669 E6.05166
G1 X470.761 Y428.045 E7.41466
G1 X472.223 Y426.462 E15.95987
G1 X472.85 Y425.874 E6.3653
G1 X473.035 Y425.729 E1.74075
G1 X473.623 Y425.344 E5.20403
G1 X474.453 Y424.957 E6.77538
G1 X474.809 Y424.814 E2.84435
G1 X475.625 Y424.444 E6.63695
G1 X476.038 Y424.318 E3.19382
G1 X476.166 Y424.306 E.95216
G1 X476.642 Y424.34 E3.53742
G1 X477.393 Y424.477 E5.65338
G1 X478.073 Y424.538 E5.05423
G1 X478.754 Y424.549 E5.043
G1 X480.079 Y424.33 E9.93964
G1 X481.015 Y424.091 E7.15729
G1 X481.428 Y424.056 E3.0666
G1 X481.683 Y424.065 E1.89411
G1 X481.955 Y424.072 E2.01456
G1 X482.433 Y424.188 E3.64037
G1 X483.604 Y424.563 E9.10359
G1 X484.888 Y424.912 E9.84967
G1 X485.388 Y425.097 E3.95086
G1 X486.077 Y425.468 E5.79336
G1 X486.718 Y425.888 E5.67431
G1 X487.293 Y426.359 E5.50468
G1 X487.624 Y426.72 E3.62496
G1 X488.13 Y427.446 E6.55045
G1 X488.916 Y428.262 E8.39149
G1 X489.963 Y428.947 E9.26686
G1 X490.689 Y429.195 E5.68331
G1 X491.347 Y429.242 E4.88354
G1 X491.519 Y429.22 E1.28244
G1 X491.964 Y429.256 E3.30303
G1 X492.766 Y429.046 E6.14391
G1 X493.225 Y428.845 E3.70893
G1 X493.977 Y428.453 E6.27922
G1 X494.87 Y427.937 E7.63621
G1 X495.677 Y427.545 E6.64134
G1 X497.033 Y427.068 E10.64677
G1 X497.723 Y426.844 E5.3732
G1 X498.372 Y426.696 E4.9274
G1 X499.761 Y426.671 E10.28368
G1 X500.742 Y426.562 E7.30782
G1 X501.66 Y426.389 E6.92267
G1 X502.004 Y426.389 E2.543
G1 X502.329 Y426.425 E2.42719
G1 X502.848 Y426.543 E3.93829
G1 X503.207 Y426.667 E2.81079
G1 X503.951 Y427.028 E6.12718
G1 X504.642 Y427.329 E5.58134
G1 X505.483 Y427.565 E6.466
G1 X506.569 Y427.695 E8.10062
G1 X507.449 Y427.645 E6.52178
G1 X507.881 Y427.677 E3.20611
G1 X508.246 Y427.745 E2.74835
G1 X508.563 Y427.851 E2.47785
G1 X508.86 Y428.001 E2.46624
G1 X510.935 Y429.306 E18.14609
G1 X511.125 Y429.446 E1.74642
G1 X511.426 Y429.752 E3.18133
G1 X511.912 Y430.384 E5.90337
G1 X512.244 Y430.976 E5.02628
G1 X512.925 Y432.443 E11.97785
G1 X513.755 Y433.71 E11.21316
G1 X514.904 Y434.512 E10.37816
G1 X515.582 Y434.799 E5.44844
G1 X515.875 Y434.849 E2.20534
G1 X516.088 Y434.912 E1.6439
G1 X517.119 Y435.06 E7.70829
G1 X517.602 Y435.201 E3.73003
G1 X518.559 Y435.561 E7.56577
G1 X518.849 Y435.688 E2.34797
G1 X519.37 Y435.961 E4.35497
G1 X520.02 Y436.48 E6.15999
G1 X520.492 Y436.892 E4.63654
G1 X520.845 Y437.149 E3.23648
G1 X521.109 Y437.376 E2.57836
G1 X522.036 Y438.109 E8.74965
G1 X522.257 Y438.372 E2.54675
G1 X522.681 Y439.035 E5.82483
G1 X522.886 Y439.383 E2.98535
G1 X523.188 Y440.045 E5.38898
G1 X523.932 Y441.829 E14.31366
G1 X524.391 Y442.67 E7.0953
G1 X525.216 Y443.777 E10.22786
G1 X525.764 Y444.391 E6.09282
G1 X526.154 Y444.916 E4.84051
G1 X526.672 Y445.691 E6.90427
G1 X527.11 Y446.538 E7.06045
G1 X527.449 Y447.409 E6.9232
G1 X528.036 Y449.726 E17.69435
G1 X528.513 Y451.137 E11.03188
G1 X528.875 Y452.341 E9.30464
G1 X528.973 Y452.891 E4.14066
G1 X529.034 Y453.405 E3.83053
G1 X529.089 Y453.673 E2.02887
G1 X529.177 Y455.15 E10.95231
G1 X529.256 Y455.878 E5.42721
G1 X529.289 Y456.594 E5.30541
G1 X529.299 Y457.884 E9.55431
G1 X529.141 Y459.75 E13.86362
G1 X529.149 Y460.343 E4.39405
G1 X529.119 Y461.177 E6.17763
G1 X529.228 Y463.072 E14.05327
G1 X529.573 Y464.26 E9.16289
G1 X529.841 Y464.744 E4.09489
G1 X530.002 Y465.247 E3.91522
G1 X530.814 Y466.416 E10.53854
G1 X532.009 Y467.395 E11.43397
G1 X533.326 Y468.102 E11.06876
G1 X535.005 Y468.538 E12.85182
G1 X535.772 Y468.66 E5.75018
G1 X536.652 Y468.851 E6.6655
G1 X537.92 Y469.063 E9.51697
G1 X538.713 Y469.17 E5.92412
G1 X538.967 Y469.191 E1.88915
G1 X539.5 Y469.303 E4.03196
G1 X540.259 Y469.426 E5.696
G1 X541.779 Y469.731 E11.47977
G1 X543.634 Y470.037 E13.91777
G1 X544.831 Y470.356 E9.17805
G1 X545.446 Y470.589 E4.86966
G1 X546.451 Y471.041 E8.15457
G1 X547.496 Y471.458 E8.33313
G1 X548.099 Y471.629 E4.64203
G1 X549.824 Y472.05 E13.15052
G1 X550.306 Y472.21 E3.75713
G1 X551.043 Y472.53 E5.95312
G1 X551.566 Y472.829 E4.45851
G1 X551.869 Y473.048 E2.76542
G1 X552.8 Y473.623 E8.10453
G1 X553.523 Y474.183 E6.77526
G1 X553.997 Y474.629 E4.81327
G1 X554.295 Y474.94 E3.19549
G1 X555.183 Y475.682 E8.56994
G1 X555.583 Y475.926 E3.46386
G1 X555.97 Y476.142 E3.28299
G1 X556.724 Y476.48 E6.11868
G1 X558.135 Y477.005 E11.14526
G1 X558.716 Y477.25 E4.67451
G1 X559.597 Y477.721 E7.3965
G1 X560.098 Y478.128 E4.78016
G1 X560.234 Y478.274 E1.47733
G1 X561.015 Y479.297 E9.52862
G1 X561.624 Y480.039 E7.10576
