; HEADER_BLOCK_START
; generated by GingerSlicer 2.3.1.1 on 2025-08-01 at 19:08:14
; total layer number: 121
; filament_density: 1.24
; filament_diameter: 1.12838
; max_z_height: 180.00
; HEADER_BLOCK_END

; THUMBNAIL_BLOCK_START

;
; THUMBNAIL_BLOCK_END

; external perimeters extrusion width = 4.00mm
; perimeters extrusion width = 3.20mm
; infill extrusion width = 3.20mm
; solid infill extrusion width = 3.20mm
; top infill extrusion width = 3.20mm
; first layer extrusion width = 4.00mm

; EXECUTABLE_BLOCK_START
EXCLUDE_OBJECT_DEFINE NAME=Corpo4-copia_id_0_copy_0 CENTER=476.3,184.509 POLYGON=[[388.36,186.486],[388.447,183.32],[388.598,180.237],[388.821,177.083],[389.079,174.13],[389.396,171.303],[389.76,168.452],[390.176,165.744],[390.634,163.08],[391.149,160.482],[391.695,157.985],[392.312,155.487],[392.947,153.132],[393.661,150.756],[394.376,148.58],[395.189,146.34],[396.02,144.253],[396.758,142.587],[397.634,140.783],[398.547,139.058],[399.692,137.054],[400.806,135.326],[436.501,84.0887],[437.995,82.1504],[438.585,81.4352],[439.838,79.941],[440.768,78.8576],[441.767,77.7516],[443.319,76.1869],[444.107,75.4653],[444.553,75.0841],[445.376,74.3863],[445.849,74.0421],[448.073,72.4252],[450.918,70.7325],[452.957,69.7073],[455.021,68.8021],[457.088,68.0136],[459.137,67.3386],[463.187,66.2861],[465.253,65.8815],[467.345,65.5572],[470.757,65.205],[474.191,65.0647],[478.551,65.0647],[481.986,65.205],[485.397,65.5572],[487.489,65.8815],[489.555,66.2861],[493.606,67.3386],[495.654,68.0136],[497.722,68.8021],[499.786,69.7073],[501.824,70.7325],[504.669,72.4252],[506.902,74.0421],[507.366,74.3863],[508.198,75.0841],[508.635,75.4653],[509.431,76.1869],[510.984,77.7516],[511.991,78.8576],[512.928,79.941],[513.852,81.0351],[514.779,82.1504],[516.281,84.0887],[551.84,135.326],[552.953,137.054],[554.099,139.058],[555.001,140.783],[555.877,142.587],[556.615,144.253],[557.444,146.34],[558.256,148.58],[558.966,150.756],[559.68,153.132],[560.31,155.487],[560.926,157.985],[561.467,160.482],[561.982,163.08],[562.434,165.744],[562.85,168.452],[563.204,171.23],[563.526,174.13],[563.784,177.083],[564.002,180.237],[564.153,183.32],[564.239,186.486],[564.193,189.736],[564.158,190.173],[563.801,193.325],[563.1,196.405],[562.856,197.155],[561.846,200.142],[561.361,201.219],[560.026,204.188],[559.31,205.588],[556.773,210.195],[555.566,212.26],[552.442,217.445],[539.632,238.695],[536.34,243.479],[532.688,247.994],[528.698,252.213],[479.423,302.064],[478.638,302.828],[477.873,303.4],[477.126,303.777],[476.391,303.954],[475.657,303.777],[474.909,303.4],[474.145,302.828],[473.359,302.064],[423.794,252.213],[419.803,247.994],[416.151,243.479],[412.86,238.695],[400.089,217.445],[396.974,212.26],[395.777,210.195],[393.25,205.588],[392.544,204.188],[391.208,201.219],[390.734,200.142],[389.723,197.155],[389.489,196.405],[388.788,193.325],[388.431,190.173],[388.406,189.736],[388.36,186.486]]
M73 P0 R55
;TYPE:Custom
START_PRINT BED_TEMPERATURE=55 KAMP_LEVELING=1 EXTRUDER_ROTATION_VOLUME=520 MIXING_STEPPER_ROTATION_VOLUME=8000 PURGE_LAYER_HEIGHT=2 PURGE_PARKING_SPEED=10000 PURGE_LENGHT=500 PURGE_SPEED=400 PURGE_MATERIAL_QUANTITY=7000 EXTRUDER_TEMPERATURE=220 EXTRUDER_TEMPERATURE_INITIAL_LAYER=220 PRESSURE_ADVANCE=0.2 PRESSURE_ADVANCE_SMOOTH_TIME=0.5 ZONE_1_TEMPERATURE=205 ZONE_2_TEMPERATURE=200 ZONE_3_TEMPERATURE=200
G90
G21
M83 ; use relative distances for extrusion
SET_PRESSURE_ADVANCE EXTRUDER=extruder SMOOTH_TIME=0.55
SET_PRESSURE_ADVANCE ADVANCE=0.3; Override pressure advance value
SET_EXTRUDER_ROTATION_DISTANCE EXTRUDER=extruder DISTANCE=520
SET_EXTRUDER_ROTATION_DISTANCE EXTRUDER=mixing_stepper DISTANCE=8000
M106 S0
;LAYER_CHANGE
;Z:1.5
;HEIGHT:1.5
;BEFORE_LAYER_CHANGE
;1.5
G92 E0

G1 Z1.5 F15000
;AFTER_LAYER_CHANGE
;1.5
;_SET_FAN_SPEED_CHANGING_LAYER
SET_VELOCITY_LIMIT ACCEL=1500
SET_VELOCITY_LIMIT SQUARE_CORNER_VELOCITY=3
G1 E-30 F12000
G1 Z2 F15000
G1 X414.953 Y137.012
G1 Z1.5
G1 E40 F9000
;TYPE:Skirt
;WIDTH:4
G1 F1957.534
G1 X419.523 Y132.86 E34.07135
G1 X423.803 Y129.495 E30.03421
G1 X428.855 Y126.017 E33.8411
G1 X435.391 Y122.182 E41.80538
G1 X440.19 Y119.733 E29.7248
G1 X445.794 Y117.291 E33.72881
G1 X452.485 Y114.952 E39.10538
G1 X458.409 Y113.414 E33.76983
G1 X463.605 Y112.449 E29.15369
G1 X470.211 Y111.707 E36.67817
G1 X475.92 Y111.451 E31.52909
G1 X478.487 Y111.502 E14.16525
G1 X482.275 Y111.703 E20.92792
G1 X487.816 Y112.283 E30.7363
G1 X494.845 Y113.567 E39.42038
G1 X500.878 Y115.214 E34.50487
G1 X505.915 Y116.985 E29.45717
G1 X511.578 Y119.402 E33.97126
G1 X518.252 Y122.839 E41.41762
G1 X522.978 Y125.617 E30.24252
G1 X528.042 Y129.033 E33.69882
G1 X533.566 Y133.378 E38.7762
G1 X538.172 Y137.625 E34.56934
G1 X541.654 Y141.332 E28.05563
G1 X543.156 Y143.041 E12.55495
G1 X547.801 Y149.032 E41.82521
G1 X551.511 Y154.77 E37.69377
G1 X554.33 Y159.956 E32.56798
G1 X557.249 Y166.493 E39.49753
G1 X559.678 Y173.506 E40.94877
G1 X561.038 Y178.595 E29.06286
G1 X562.128 Y184.048 E30.67896
G1 X562.976 Y190.683 E36.90099
G1 X563.297 Y196.155 E30.24271
G1 X563.27 Y201.452 E29.22757
G1 X562.743 Y208.541 E39.2155
G1 X562.045 Y213.391 E27.03755
G1 X560.755 Y219.43 E34.07007
G1 X558.649 Y226.515 E40.77817
G1 X556.313 Y232.508 E35.48773
G1 X553.11 Y239.076 E40.31166
G1 X550.252 Y243.989 E31.3614
G1 X546.78 Y249.084 E34.01549
G1 X542.179 Y254.856 E40.72558
G1 X537.058 Y260.273 E41.12982
G1 X531.897 Y264.93 E38.34783
G1 X525.951 Y269.489 E41.33832
G1 X520.825 Y272.851 E33.82395
G1 X515.44 Y275.851 E34.00663
G1 X509.086 Y278.812 E38.67636
G1 X502.562 Y281.23 E38.38423
G1 X495.357 Y283.218 E41.23778
G1 X489.552 Y284.35 E32.63124
G1 X483.589 Y285.066 E33.13396
G1 X476.009 Y285.391 E41.8618
G1 X468.908 Y285.068 E39.21786
G1 X462.936 Y284.351 E33.18288
G1 X457.119 Y283.218 E32.69376
G1 X449.788 Y281.188 E41.96761
G1 X443.388 Y278.817 E37.6564
G1 X437.046 Y275.867 E38.58723
G1 X431.635 Y272.856 E34.16554
G1 X426.511 Y269.499 E33.79728
G1 X420.602 Y264.972 E41.07014
G1 X414.869 Y259.747 E42.79179
G1 X410.233 Y254.788 E37.45759
G1 X406.418 Y250.071 E33.46882
G1 X402.868 Y244.964 E34.31709
G1 X399.125 Y238.602 E40.72134
G1 X396.111 Y232.304 E38.5211
G1 X393.9 Y226.602 E33.7413
G1 X392.099 Y220.703 E34.03028
G1 X390.585 Y213.964 E38.10765
G1 X389.655 Y207.292 E37.16229
G1 X389.272 Y201.899 E29.8285
G1 X389.226 Y196.649 E28.96629
G1 X389.519 Y191.184 E30.19884
G1 X389.675 Y189.519 E9.22262
G1 X390.322 Y184.558 E27.60468
G1 X391.323 Y179.398 E28.99586
G1 X393.023 Y172.964 E36.71732
G1 X395.445 Y166.131 E39.99573
G1 X397.832 Y160.708 E32.68781
G1 X400.907 Y154.959 E35.97508
G1 X404.566 Y149.241 E37.45318
G1 X409.248 Y143.151 E42.37853
G1 X410.802 Y141.394 E12.9401
G1 X414.746 Y137.23 E31.64473
; printing object Corpo4-copia id:0 copy 0
;WIPE_START
G1 F600
G1 X419.523 Y132.86 E-24.2803
G1 X420.722 Y131.917 E-5.7197
;WIPE_END
G1 Z2 F15000
EXCLUDE_OBJECT_START NAME=Corpo4-copia_id_0_copy_0
G1 X424.314 Y147.215
G1 Z1.5
G1 E40 F9000
;TYPE:Outer wall
;WIDTH:4
G1 F1957.534
G1 X424.701 Y146.908 E2.72869
G1 X428.068 Y143.757 E25.44176
G1 X428.645 Y143.378 E3.80537
G1 X432.245 Y140.465 E25.55183
G1 X432.728 Y140.184 E3.084
G1 X436.232 Y137.744 E23.55764
G1 X441.107 Y134.83 E31.33506
G1 X441.708 Y134.496 E3.79044
G1 X445.959 Y132.365 E26.23497
G1 X446.464 Y132.073 E3.21806
G1 X450.869 Y130.245 E26.31101
G1 X451.307 Y129.997 E2.77923
G1 X455.775 Y128.508 E25.98765
G1 X456.242 Y128.275 E2.87389
G1 X460.673 Y127.149 E25.22565
G1 X461.122 Y126.987 E2.63634
G1 X465.648 Y126.177 E25.36364
G1 X466.119 Y126.063 E2.67444
G1 X469.805 Y125.674 E20.45124
G1 X471.153 Y125.515 E7.48527
G1 X472.663 Y125.421 E8.34973
G1 X474.491 Y125.336 E10.09294
G1 X476.045 Y125.314 E8.57765
G1 X477.332 Y125.328 E7.10232
G1 X479.833 Y125.419 E13.80548
G1 X481.482 Y125.535 E9.12148
G1 X486.247 Y126.033 E26.43115
G1 X486.741 Y126.137 E2.78478
G1 X491.262 Y126.943 E25.33585
G1 X491.828 Y127.145 E3.31862
G1 X496.232 Y128.263 E25.06892
G1 X496.83 Y128.548 E3.65317
G1 X501.158 Y129.986 E25.15822
G1 X501.72 Y130.295 E3.54145
G1 X505.988 Y132.064 E25.48739
G1 X506.463 Y132.339 E3.02945
G1 X510.662 Y134.445 E25.91591
G1 X511.25 Y134.776 E3.72267
G1 X515.33 Y137.205 E26.19852
G1 X515.925 Y137.528 E3.73482
G1 X519.755 Y140.198 E25.75669
G1 X520.256 Y140.482 E3.17818
G1 X523.875 Y143.409 E25.68126
G1 X524.366 Y143.721 E3.20779
G1 X527.713 Y146.851 E25.28485
G1 X528.198 Y147.222 E3.36768
G1 X531.277 Y150.549 E25.01347
G1 X531.59 Y150.839 E2.35128
G1 X532.357 Y151.743 E6.54
G1 X532.71 Y152.122 E2.85629
G1 X535.922 Y156.341 E29.25455
G1 X536.315 Y156.756 E3.15321
G1 X539.062 Y161.039 E28.07477
G1 X539.422 Y161.51 E3.27276
G1 X541.822 Y165.99 E28.03903
G1 X542.14 Y166.516 E3.39251
G1 X544.173 Y171.151 E27.92254
G1 X544.378 Y171.586 E2.64962
G1 X546.336 Y177.183 E32.71752
G1 X547.446 Y181.295 E23.49738
G1 X547.648 Y182.123 E4.70421
G1 X548.451 Y186.201 E22.92652
G1 X548.558 Y186.804 E3.37874
G1 X549.1 Y191.007 E23.38519
G1 X549.166 Y191.585 E3.20587
G1 X549.449 Y196.334 E26.25059
G1 X549.469 Y196.93 E3.28579
G1 X549.434 Y201.07 E22.8468
G1 X549.413 Y201.776 E3.89456
G1 X549.038 Y206.622 E26.81522
G1 X548.372 Y211.252 E25.80757
G1 X547.207 Y216.602 E30.20654
G1 X545.636 Y221.803 E29.97454
G1 X543.646 Y226.948 E30.43653
G1 X541.278 Y231.874 E30.15707
G1 X538.597 Y236.518 E29.58162
G1 X538.253 Y237.061 E3.54941
G1 X535.207 Y241.473 E29.57768
G1 X531.834 Y245.655 E29.63979
G1 X531.377 Y246.179 E3.83689
G1 X527.657 Y250.11 E29.86183
G1 X527.145 Y250.595 E3.88923
G1 X523.126 Y254.224 E29.87532
G1 X518.844 Y257.552 E29.92043
G1 X518.294 Y257.961 E3.78029
G1 X513.492 Y261.113 E31.69561
G1 X508.495 Y263.872 E31.48946
G1 X503.477 Y266.16 E30.42817
G1 X498.074 Y268.137 E31.73825
G1 X492.613 Y269.654 E31.27051
G1 X487.264 Y270.7 E30.07271
G1 X482.254 Y271.289 E27.82813
G1 X481.575 Y271.35 E3.76396
G1 X476.246 Y271.553 E29.42062
G1 X471.124 Y271.359 E28.27929
G1 X470.472 Y271.317 E3.60402
G1 X465.222 Y270.701 E29.16777
G1 X459.861 Y269.653 E30.13616
G1 X454.382 Y268.133 E31.3719
G1 X448.994 Y266.163 E31.6455
G1 X443.96 Y263.871 E30.51717
G1 X438.963 Y261.115 E31.48723
G1 X434.162 Y257.967 E31.67462
G1 X433.674 Y257.604 E3.35651
G1 X429.368 Y254.262 E30.06901
G1 X425.324 Y250.612 E30.05534
G1 X424.881 Y250.193 E3.36527
G1 X420.935 Y246.014 E31.70783
G1 X417.348 Y241.581 E31.46377
G1 X414.166 Y236.97 E30.91032
G1 X411.288 Y231.999 E31.68664
G1 X408.911 Y227.053 E30.27908
G1 X406.914 Y221.891 E30.53739
G1 X405.37 Y216.777 E29.47116
G1 X404.162 Y211.279 E31.05359
M73 P1 R55
G1 X403.526 Y206.853 E24.6726
G1 X403.454 Y206.232 E3.44646
G1 X403.118 Y201.766 E24.71297
G1 X403.096 Y200.934 E4.588
G1 X403.064 Y196.894 E22.29377
G1 X403.091 Y196.074 E4.52509
G1 X403.331 Y192.04 E22.29432
G1 X403.407 Y191.239 E4.43964
G1 X403.949 Y187.025 E23.44173
G1 X404.034 Y186.472 E3.0867
G1 X404.892 Y182.116 E24.49302
G1 X405.059 Y181.429 E3.90188
G1 X406.197 Y177.206 E24.12724
G1 X407.925 Y172.218 E29.12557
G1 X408.138 Y171.645 E3.37089
G1 X410.33 Y166.656 E30.06601
G1 X410.593 Y166.187 E2.96613
G1 X413.03 Y161.635 E28.48602
G1 X413.328 Y161.216 E2.83674
G1 X416.099 Y156.893 E28.32786
G1 X416.532 Y156.401 E3.62093
G1 X419.526 Y152.45 E27.3507
G1 X420.723 Y151.067 E10.08991
G1 X421.171 Y150.612 E3.52344
G1 X424.11 Y147.435 E23.87467
;WIPE_START
G1 F600
G1 X424.701 Y146.908 E-2.97139
G1 X428.068 Y143.757 E-17.29277
G1 X428.645 Y143.378 E-2.58651
G1 X430.127 Y142.179 E-7.14933
;WIPE_END
G1 Z2 F15000
G1 X415.365 Y236.764
G1 Z1.5
G1 E40 F9000
;TYPE:Bottom surface
;WIDTH:4.01485
G1 F1949.664
G1 X427.006 Y248.405 E91.19546
G1 X431.14 Y252.145 E30.8812
G1 X435.75 Y255.709 E32.2799
G1 X440.387 Y258.75 E30.71864
G1 X445.251 Y261.428 E30.75289
G1 X412.991 Y229.167 E252.72231
G1 X411.411 Y225.868 E20.26423
G1 X409.524 Y220.993 E28.95704
G1 X409.302 Y220.256 E4.26393
G1 X454.161 Y265.115 E351.41928
G1 X455.225 Y265.504 E6.27953
G1 X460.495 Y266.967 E30.29474
G1 X461.415 Y267.146 E5.19061
G1 X407.392 Y213.123 E423.2104
G1 X406.878 Y210.786 E13.25368
G1 X406.308 Y206.817 E22.21604
G1 X467.706 Y268.215 E480.98829
G1 X470.738 Y268.571 E16.90905
G1 X471.069 Y268.596 E1.84173
G1 X473.398 Y268.684 E12.90904
G1 X405.861 Y201.148 E529.07494
G1 X405.823 Y196.929 E23.36928
G1 X405.864 Y195.927 E5.5542
G1 X478.638 Y268.701 E570.1043
G1 X481.418 Y268.596 E15.41279
G1 X481.757 Y268.57 E1.88267
G1 X483.521 Y268.362 E9.84145
G1 X406.212 Y191.053 E605.63181
G1 X406.703 Y187.237 E21.31641
M73 P1 R54
G1 X406.853 Y186.471 E4.32068
G1 X488.106 Y267.724 E636.53123
G1 X491.978 Y266.967 E21.85779
G1 X492.442 Y266.838 E2.66726
G1 X407.729 Y182.125 E663.63816
G1 X408.838 Y178.011 E23.60184
M73 P2 R54
G1 X496.53 Y265.703 E686.97156
G1 X497.217 Y265.512 E3.95397
G1 X500.398 Y264.349 E18.76049
G1 X410.181 Y174.132 E706.75179
G1 X410.69 Y172.694 E8.45044
G1 X411.69 Y170.418 E13.76878
G1 X504.111 Y262.839 E724.01953
G1 X507.254 Y261.406 E19.13539
G1 X507.671 Y261.176 E2.63497
G1 X413.354 Y166.859 E738.86908
G1 X415.18 Y163.463 E21.36146
G1 X511.036 Y259.318 E750.92304
G1 X512.066 Y258.749 E6.52038
G1 X514.253 Y257.314 E14.49406
G1 X417.211 Y160.271 E760.2246
G1 X418.305 Y158.563 E11.23934
G1 X418.713 Y158.09 E3.4566
G1 X419.377 Y157.215 E6.08672
G1 X517.368 Y255.205 E767.65031
G1 X520.307 Y252.922 E20.61707
G1 X421.628 Y154.243 E773.03617
G1 X421.729 Y154.11 E.92686
M73 P3 R54
G1 X421.978 Y153.847 E2.00401
G1 X422.868 Y152.803 E7.59916
G1 X423.178 Y152.504 E2.38556
G1 X424.108 Y151.5 E7.58056
G1 X523.12 Y250.512 E775.65437
G1 X525.272 Y248.569 E16.06241
G1 X525.843 Y248.013 E4.41546
G1 X426.672 Y148.842 E776.89742
G1 X429.37 Y146.317 E20.46794
G1 X528.383 Y245.33 E775.65802
G1 X529.335 Y244.324 E7.67241
M73 P3 R53
G1 X529.72 Y243.882 E3.24771
G1 X530.808 Y242.533 E9.60164
G1 X432.269 Y143.994 E771.9477
G1 X433.807 Y142.749 E10.96156
G1 X434.28 Y142.466 E3.05007
G1 X435.272 Y141.774 E6.70144
G1 X533.128 Y239.63 E766.59193
G1 X535.261 Y236.54 E20.79738
G1 X438.381 Y139.66 E758.94587
G1 X441.657 Y137.713 E21.10808
G1 X537.26 Y233.317 E748.94793
G1 X538.836 Y230.586 E17.4648
M73 P4 R53
G1 X539.132 Y229.966 E3.80439
G1 X445.065 Y135.899 E736.91729
G1 X447.216 Y134.82 E13.33114
G1 X447.689 Y134.552 E3.0134
G1 X448.574 Y134.185 E5.30359
G1 X540.822 Y226.434 E722.66877
G1 X541.158 Y225.733 E4.30305
G1 X542.325 Y222.714 E17.93021
G1 X452.241 Y132.63 E705.71058
G1 X452.431 Y132.53 E1.18736
G1 X456.133 Y131.299 E21.61019
G1 X543.655 Y218.821 E685.64121
G1 X544.511 Y215.988 E16.39468
G1 X544.786 Y214.73 E7.1336
G1 X460.177 Y130.121 E662.81873
G1 X461.384 Y129.814 E6.89841
G1 X461.856 Y129.658 E2.75245
G1 X464.469 Y129.19 E14.70556
G1 X545.704 Y210.425 E636.38662
G1 X546.299 Y206.289 E23.14483
G1 X546.341 Y205.84 E2.50167
G1 X469.031 Y128.529 E605.64523
G1 X471.063 Y128.315 E11.32287
G1 X471.441 Y128.261 E2.11288
G1 X472.796 Y128.177 E7.51917
G1 X473.864 Y128.14 E5.92021
G1 X546.676 Y200.952 E570.40552
G1 X546.71 Y196.965 E22.08989
M73 P5 R53
G1 X546.658 Y195.711 E6.9514
G1 X479.101 Y128.154 E529.23229
G1 X479.702 Y128.175 E3.33164
G1 X481.052 Y128.257 E7.49397
G1 X484.826 Y128.657 E21.02153
G1 X546.192 Y190.022 E480.73316
G1 X545.831 Y187.221 E15.64652
G1 X545.157 Y183.765 E19.50332
G1 X491.232 Y129.84 E422.44786
G1 X495.267 Y130.864 E23.06362
M73 P5 R52
G1 X495.839 Y131.125 E3.48112
G1 X498.686 Y132.071 E16.61607
G1 X543.207 Y176.592 E348.77677
G1 X541.817 Y172.621 E23.30481
G1 X539.734 Y167.896 E28.60666
G1 X508.067 Y136.229 E248.07623
G1 X509.366 Y136.881 E8.05533
G1 X509.868 Y137.164 E3.1879
G1 X513.901 Y139.565 E26.00347
G1 X514.473 Y139.878 E3.60736
G1 X518.167 Y142.453 E24.94717
G1 X518.694 Y142.767 E3.39632
G1 X522.151 Y145.566 E24.64076
G1 X522.668 Y145.91 E3.44069
G1 X525.812 Y148.852 E23.8488
G1 X526.309 Y149.249 E3.524
G1 X537.129 Y160.069 E84.76448
; stop printing object Corpo4-copia id:0 copy 0
;LAYER_CHANGE
;Z:3
;HEIGHT:1.5
;BEFORE_LAYER_CHANGE
;3
G92 E0

EXCLUDE_OBJECT_END NAME=Corpo4-copia_id_0_copy_0
G1 Z3 F15000
;AFTER_LAYER_CHANGE
;3
;_SET_FAN_SPEED_CHANGING_LAYER
M140 S55 ; set bed temperature
; printing object Corpo4-copia id:0 copy 0
